X: 9797
T: Denis Murphy's
R: slide
M: 12/8
K: Adorian
|:B2B BAB d2B G2A|BAB d2B A3 G2A|
B2B BAB d2B G2A|B2e e2d e3 e3:|
|:B2g g2f g2e B2A|B2g g2f g3 a3|
bag agf g2e fed|B2e e2d e3 e3:|

